X: 31617
T: Pansini's Fancy
R: jig
M: 6/8
K: Gmajor
EFG|:~B3 BAG|FFF FED|~E3 BEB|M:9/8
B3 F3 EFG|
M:6/8
~B3 BAG|FFF FED|EBE FBF|
M:9/8
[1 D6 EFG:|2 D6||
|:~g3 fed|e2a b2a|ged e2f|~g3 fed|e2d e2d|1 BcB BAG:|2 BcB AGF|G6||

